Costumes/cloud-c.svg

<svg version="1.1" width="117" height="12" viewBox="-1 -1 117 12" xmlns="http://www.w3.org/2000/svg" xmlns:xlink="http://www.w3.org/1999/xlink">
  <!-- Exported by Scratch - http://scratch.mit.edu/ -->
  <g id="ID0.5555598153732717" transform="matrix(1.7103393077850342, 0, 0, 1.7103393077850342, -52.8, -301.1)">
    <path id="ID0.9825037522241473" fill="#FFFFFF" stroke="#E3DEEE" d="M 598.500 734.900 C 608.600 734.900 826.400 734.900 846.900 734.900 C 867.400 734.900 905.300 732.400 904 724.800 C 902.900 718.600 868.500 721.500 867.700 721.200 C 865.700 720.500 862.600 713.900 836.500 712.600 C 812.100 711.400 780.300 718.800 774 720 C 761.500 717.300 736.500 706.800 713.300 705.700 C 687.600 704.500 663.900 710 658.900 715.500 C 656.200 718.500 658.900 721.100 658.700 722.600 C 658.500 723.800 647.800 727.100 634.500 728.600 C 619.100 727.700 589.800 715.800 582.600 722.600 C 579.300 725.800 586.300 734.900 598.500 734.900 Z " transform="matrix(0.3584859073162079, 0, 0, 0.3584859073162079, -177.05, -76.35)"/>
    <path id="ID0.10603649541735649" fill="#E3DEEE" d="M 774.600 723.200 C 759.300 718.700 739.400 710.100 715.500 708.200 C 691.600 706.300 671.700 711.200 664.400 714.300 C 661.300 715.600 659.500 717.200 658.900 718.400 C 658 720.200 659.100 721.900 658.600 722.700 C 658.400 723.900 647.700 727.200 634.400 728.700 C 621.500 731 607.400 733.200 599.400 733 C 591.400 732.900 586.700 730 584.400 726.800 C 582.200 723.500 584.300 721.600 588.100 720.700 C 585.700 720.900 583.700 721.500 582.500 722.700 C 579.200 725.800 586.200 735 598.400 735 C 608.500 735 826.300 735 846.800 735 C 851.500 735 857 734.900 862.900 734.600 C 824 734.900 790 727.600 774.600 723.200 Z " transform="matrix(0.3584859073162079, 0, 0, 0.3584859073162079, -177.05, -76.35)"/>
  </g>
</svg>

<?xml version="1.0" encoding="UTF-8" standalone="no"?>
<svg
   version="1.1"
   width="198.18929"
   height="18.618673"
   viewBox="-1 -1 198.18929 18.618673"
   id="svg5"
   sodipodi:docname="cloud-c.svg"
   xmlns:inkscape="http://www.inkscape.org/namespaces/inkscape"
   xmlns:sodipodi="http://sodipodi.sourceforge.net/DTD/sodipodi-0.dtd"
   xmlns="http://www.w3.org/2000/svg"
   xmlns:svg="http://www.w3.org/2000/svg">
  <defs
     id="defs9" />
  <sodipodi:namedview
     id="namedview7"
     pagecolor="#ffffff"
     bordercolor="#000000"
     borderopacity="0.25"
     inkscape:showpageshadow="2"
     inkscape:pageopacity="0.0"
     inkscape:pagecheckerboard="0"
     inkscape:deskcolor="#d1d1d1" />
  <!-- Exported by Scratch - http://scratch.mit.edu/ -->
  <g
     id="ID0.5555598153732717"
     transform="matrix(1.7103393,0,0,1.7103393,-54.592562,-302.69459)">
    <path
       id="ID0.9825037522241473"
       fill="#ffffff"
       stroke="#e3deee"
       d="m 598.5,734.9 c 10.1,0 227.9,0 248.4,0 20.5,0 58.4,-2.5 57.1,-10.1 -1.1,-6.2 -35.5,-3.3 -36.3,-3.6 -2,-0.7 -5.1,-7.3 -31.2,-8.6 -24.4,-1.2 -56.2,6.2 -62.5,7.4 -12.5,-2.7 -37.5,-13.2 -60.7,-14.3 -25.7,-1.2 -49.4,4.3 -54.4,9.8 -2.7,3 0,5.6 -0.2,7.1 -0.2,1.2 -10.9,4.5 -24.2,6 -15.4,-0.9 -44.7,-12.8 -51.9,-6 -3.3,3.2 3.7,12.3 15.9,12.3 z"
       transform="matrix(0.35848591,0,0,0.35848591,-177.05,-76.35)" />
    <path
       id="ID0.10603649541735649"
       fill="#e3deee"
       d="m 774.6,723.2 c -15.3,-4.5 -35.2,-13.1 -59.1,-15 -23.9,-1.9 -43.8,3 -51.1,6.1 -3.1,1.3 -4.9,2.9 -5.5,4.1 -0.9,1.8 0.2,3.5 -0.3,4.3 -0.2,1.2 -10.9,4.5 -24.2,6 -12.9,2.3 -27,4.5 -35,4.3 -8,-0.1 -12.7,-3 -15,-6.2 -2.2,-3.3 -0.1,-5.2 3.7,-6.1 -2.4,0.2 -4.4,0.8 -5.6,2 -3.3,3.1 3.7,12.3 15.9,12.3 10.1,0 227.9,0 248.4,0 4.7,0 10.2,-0.1 16.1,-0.4 -38.9,0.3 -72.9,-7 -88.3,-11.4 z"
       transform="matrix(0.35848591,0,0,0.35848591,-177.05,-76.35)" />
  </g>
</svg>
